X:1
T:Title
%%score ( 1 2 ) ( 3 4 )
L:1/8
Q:1/4=98
M:4/4
K:G
V:1 treble nm="Grand Piano, Soprano"
V:2 treble 
V:3 bass nm="Choir Pad, Merrily, Cheerily"
V:4 bass 
V:1
 [B,D][B,D] [B,D]2 [B,E][B,E] [B,E]2 | z4 A4 | z4 z2 .E2 | z4 A4 | %4
w: By~Joseph~Lincoln~Hall * * * * *||||
 [B,D][B,D] [B,D]2 [B,E][B,E] [B,E]2 | z4 B4 | BF=F^F [Fd]2 [Ec]2 | [DFB]6 z2 | B2 A>F A2 d2 | %9
w: |||||
 G2 A2 B4 | G2 G>G F2 E2 | ^D2 z F B2- [DB]2 | [EB]2 [EB]>B [Ee]2 [Ed]2 | %13
w: ||||
 [Ed]2 [Ec]>B [Ed]2 [Ec]2 | [DB]3 D [DB]2 [CA]2 | G6 z2 | d6 z2 | d6 z2 | edBA G2 E2 | %19
w: ||||||
 [DA]6 [CD]>[CD] | [DG]2 [DG]>[DG] [GB]2 [Gd]>[Gd] | [Gc]2 [Gc][Gc] [Ge]2 [Ge]2 | %22
w: |||
 [Gd]2 BG D2 [CF]2 | [B,G]8 |] %24
w: ||
V:2
 x8 | [B,DF]2 [B,DG]2 [B,D]2 [B,D]2 | [B,D][B,D] [B,D]2 [B,E][B,E]B,-[B,G] | [DF]2 [^CE]2 D2 =C2 | %4
 x8 | [B,DF]2 [B,DG]2 [B,D]2 [B,D]2 | x8 | x8 | x8 | x8 | x8 | z2 ^D2 D2 z2 | x8 | x8 | x8 | %15
 B,2 C2 B,2 dd | z2 GF G2 dd | z2 GF G2 dd | x8 | x8 | x8 | x8 | x8 | x8 |] %24
V:3
 [G,,D,][G,,D,] [G,,D,]2 [G,,E,][G,,E,] [G,,E,]2 | [G,,F,]2 [G,,G,]2 [G,,G,]2 [G,,G,]2 | %2
 [G,,D,][G,,D,] [G,,D,]2 [G,,E,][G,,E,] [G,,E,]2 | [A,,A,]2 [A,,G,]2 [D,F,]4 | %4
 [G,,D,][G,,D,] [G,,D,]2 [G,,E,][G,,E,] [G,,E,]2 | [G,,F,]2 [G,,G,]2 [G,,G,]2 [G,,G,]2 | %6
 B,F,=F,^F, [F,B,]2 [F,_B,]2 | B,2- [F,B,-]>[E,B,-] [B,,B,]2 z2 | %8
 [D,F,A,C]2 [D,F,A,C]2 [D,F,A,C]2 [D,F,A,C]2 | [D,G,B,]2 [D,G,B,]2 [D,G,B,]2 [D,G,B,]2 | %10
 [E,G,B,]2 [E,G,B,]2 [E,A,B,]2 [E,G,B,]2 | [B,,F,]2 [B,,F,]2 [B,,F,]2 [B,,F,]2 | %12
 [E,^G,D]2 [E,G,D]2 [E,G,D]2 [E,G,D]2 | [A,C]2 [A,C]2 [A,C]2 [A,C]2 | %14
 [D,G,B,]2 [D,G,B,]2 [D,G,]2 [D,F,]2 | [G,,G,]2 [G,,E,]2 [G,,D,]2 z2 | z2 [G,B,][A,C] [B,D]2 z2 | %17
 z2[K:treble] [B,D][A,C] [G,B,]2 DD | ED[K:bass]B,B, G,2 E,2 | [D,F,]6 [D,F,]>[D,F,] | %20
 [G,,G,]2 [G,B,]>[G,B,] [G,D]2 [=F,D]>[F,D] | [E,C]2 [E,C][E,C] [C,C]2 [C,C]2 | %22
 [D,B,]2 B,G, D,2 [D,A,]2 | [G,,G,]8 |] %24
V:4
 x8 | x8 | x8 | x8 | x8 | x8 | x8 | B,,2 z2 z4 | x8 | x8 | x8 | x8 | x8 | x8 | x8 | x8 | x8 | %17
 x2[K:treble] x6 | x2[K:bass] x6 | x8 | x8 | x8 | x8 | x8 |] %24

